kora-light/actions/scalable/footsteps.svg

<svg xmlns="http://www.w3.org/2000/svg" width="16" height="16" version="1.1">
 <defs>
  <style id="current-color-scheme" type="text/css">
   .ColorScheme-Text { color:#444444; } .ColorScheme-Highlight { color:#4285f4; }
  </style>
 </defs>
 <path style="fill:currentColor" class="ColorScheme-Text" d="M 4.0411,0 C 3.8845,0 3.7226,0.01944 3.5528,0.06064 2.4969,0.31714 2.0041,1.3997 2.0001,3.4728 1.9988,4.1158 2.0098,4.291 2.0782,4.6584 2.3587,6.1653 2.8333,7.5173 3.254,8.0103 3.3427,8.1133 3.461,8.1993 3.461,8.1993 L 6.1134,7.4963 C 6.2583,7.3583 6.4262,6.7083 6.5352,5.8635 6.6043,5.3287 6.6148,4.1158 6.5548,3.6896 6.3609,2.3132 5.9212,1.2187 5.3126,0.59584 4.9257,0.19984 4.5109,0.00354 4.0411,0 Z M 10.891,4.0021 C 10.522,4.0147 10.466,4.0273 10.26,4.131 9.605,4.4607 9.109,5.1618 8.768,6.2443 8.403,7.3993 8.317,8.4683 8.473,9.8463 8.559,10.61 8.734,11.307 8.881,11.463 L 11.506,12.189 C 11.506,12.189 11.743,12.004 11.879,11.793 12.399,10.984 12.942,9.0063 12.994,7.7343 13.015,7.2303 12.969,6.5011 12.883,5.9943 12.738,5.1358 12.355,4.4546 11.875,4.2033 11.549,4.0323 11.333,3.9871 10.891,4.0021 Z M 6.2169,8.1193 3.6993,8.9323 C 3.6119,9.0183 3.8059,10.049 4.0079,10.57 4.2732,11.255 4.7522,11.799 5.2325,11.959 5.3216,11.989 5.4995,12.005 5.6778,12 5.9222,11.993 6.0089,11.972 6.1739,11.889 6.8924,11.525 7.183,10.537 6.8829,9.4743 6.7804,9.1113 6.464,8.4243 6.3145,8.2403 Z M 8.795,12.127 C 8.713,12.133 8.659,12.226 8.486,12.553 8.162,13.167 8,13.746 8,14.287 8,15.114 8.416,15.781 9.041,15.955 9.86,16.183 10.667,15.531 11.063,14.322 11.206,13.883 11.359,13.005 11.307,12.918 Z"/>
</svg>

<svg xmlns="http://www.w3.org/2000/svg" style="fill-rule:evenodd;clip-rule:evenodd;stroke-linejoin:round;stroke-miterlimit:2" width="100%" height="100%" version="1.1" viewBox="0 0 16 16" xml:space="preserve">
 <defs>
  <style id="current-color-scheme" type="text/css">
   .ColorScheme-Text { color:#444444; } .ColorScheme-Highlight { color:#4285f4; } .ColorScheme-NeutralText { color:#ff9800; } .ColorScheme-PositiveText { color:#4caf50; } .ColorScheme-NegativeText { color:#f44336; }
  </style>
 </defs>
 <path style="fill:currentColor;" class="ColorScheme-Text" d="M4.041,0c-0.157,0 -0.318,0.019 -0.488,0.061c-1.056,0.256 -1.922,0.956 -1.926,3.029c-0.002,0.643 1.206,4.427 1.627,4.92c0.089,0.103 0.207,0.189 0.207,0.189l2.652,-0.703c0.145,-0.138 -0.162,-2.293 -0.165,-2.723c-0.017,-1.937 -0.027,-3.554 -0.635,-4.177c-0.387,-0.396 -0.802,-0.592 -1.272,-0.596Zm6.85,4.002c-0.369,0.013 -0.425,0.025 -0.631,0.129c-0.655,0.33 -1.151,1.031 -1.492,2.113c-0.365,1.155 -0.034,5.063 0.113,5.219l2.625,0.726c0,0 0.237,-0.185 0.373,-0.396c0.52,-0.809 1.342,-2.705 1.378,-5.108c0.012,-0.87 -0.902,-2.23 -1.382,-2.482c-0.326,-0.171 -0.542,-0.216 -0.984,-0.201Zm-4.674,4.117l-2.518,0.813c-0.087,0.086 0.107,1.117 0.309,1.638c0.265,0.685 0.744,1.229 1.225,1.389c0.089,0.03 0.267,0.046 0.445,0.041c0.244,-0.007 0.331,-0.028 0.496,-0.111c0.718,-0.364 1.009,-1.352 0.709,-2.415c-0.103,-0.363 -0.419,-1.05 -0.568,-1.234l-0.098,-0.121Zm2.578,4.008c-0.082,0.006 -0.136,0.099 -0.309,0.426c-0.324,0.614 -0.486,1.193 -0.486,1.734c0,0.827 0.416,1.494 1.041,1.668c0.819,0.228 1.626,-0.424 2.022,-1.633c0.143,-0.439 0.296,-1.317 0.244,-1.404l-2.512,-0.791Z"/>
</svg>
